svgs/dhl.svg

<svg width="192" height="192" viewBox="0 0 192 192" fill="none" xmlns="http://www.w3.org/2000/svg">
<path fill-rule="evenodd" clip-rule="evenodd" d="M90.043 17.8779C93.7339 15.7673 98.2662 15.7673 101.957 17.8779L161.282 51.803C165.019 53.94 167.325 57.9151 167.325 62.22V130.07C167.325 134.375 165.019 138.35 161.282 140.487L101.957 174.412C98.2662 176.523 93.7339 176.523 90.043 174.412L30.7183 140.487C26.9813 138.35 24.6753 134.375 24.6753 130.07V62.22C24.6753 57.9151 26.9813 53.94 30.7183 51.803L90.043 17.8779ZM155.325 62.22L132.638 49.2462C132.399 49.4363 132.143 49.6106 131.87 49.7667L79.5746 79.672L98.9785 90.7681C101.855 92.4131 102.853 96.0785 101.208 98.9551C99.5635 101.832 95.898 102.83 93.0215 101.185L36.6753 68.9634V130.07L96 163.995L155.325 130.07V62.22ZM42.8658 58.6799L67.488 72.7602L120.622 42.3752L96 28.2949L42.8658 58.6799Z" fill="black"/>
</svg>

<svg width="192" height="192" fill="none" xmlns="http://www.w3.org/2000/svg"><path fill-rule="evenodd" clip-rule="evenodd" d="M90.043 17.878a12 12 0 0 1 11.914 0l59.325 33.925a12 12 0 0 1 6.043 10.417v67.85a12 12 0 0 1-6.043 10.417l-59.325 33.925a11.998 11.998 0 0 1-11.914 0l-59.325-33.925a12 12 0 0 1-6.043-10.417V62.22a12 12 0 0 1 6.043-10.417l59.325-33.925Zm65.282 44.342-22.687-12.974c-.239.19-.495.365-.768.52L79.575 79.673l19.403 11.096a6 6 0 0 1-5.956 10.417L36.675 68.963v61.107L96 163.995l59.325-33.925V62.22Zm-112.46-3.54 24.623 14.08 53.134-30.385L96 28.295 42.866 58.68Z" fill="#000"/></svg>
